svgs/sharp-regular/file-zipper.svg

<svg xmlns="http://www.w3.org/2000/svg" viewBox="0 0 384 512"><!--! Font Awesome Pro 6.6.0 by @fontawesome - https://fontawesome.com License - https://fontawesome.com/license (Commercial License) Copyright 2024 Fonticons, Inc. --><path d="M48 464L48 48l64 0 0 16 16 0 32 0 16 0 0-16 48 0 0 112 112 0 0 304L48 464zM256 0L48 0 0 0 0 48 0 464l0 48 48 0 288 0 48 0 0-48 0-336L256 0zM112 96l0 32 16 0 32 0 16 0 0-32-16 0-32 0-16 0zm0 64l0 32 16 0 32 0 16 0 0-32-16 0-32 0-16 0zM80 416l128 0 0-72L176 224l-64 0L80 344l0 72zm48-80l32 0 16 0 0 32-16 0-32 0-16 0 0-32 16 0z"/></svg>

<svg xmlns="http://www.w3.org/2000/svg" viewBox="0 0 384 512"><!--! Font Awesome Pro 6.5.2 by @fontawesome - https://fontawesome.com License - https://fontawesome.com/license (Commercial License) Copyright 2024 Fonticons, Inc. --><path d="M48 464V48h64V64h16 32 16V48h48V160H336V464H48zM256 0H48 0V48 464v48H48 336h48V464 128L256 0zM112 96v32h16 32 16V96H160 128 112zm0 64v32h16 32 16V160H160 128 112zM80 416H208V344L176 224H112L80 344v72zm48-80h32 16v32H160 128 112V336h16z"/></svg>
